X:18864
T:Wisconsin Pols
R:Polska
O:Norway
O:USA
M:3/4
K:DDor
{g}a2 a<g e>g|{g}f2 f<e d>f|e2 e2 (3AB^c\
|1 d>c d>e f>g :|2 dz d3 ::
_BB//c//B//A// B>A G>B|A2 A<^F D2|\
D2^F>G {AB}A2 |1 G2 G>^F G>A :|2 G2 G3 :|


